X: 1449
T: the Reel of Bogie   #2
B: O'Neill's 1850 #1449
O: Ennis
Z: Bob Safranek, rjs@gsp.org
M: C|
L: 1/8
K: Em
|: dc |\
BE ((3{F}EDE) (BA)FA | BFAF DEFA |\
[1 BE ((3{F}EDE) (BA)FA | d^cdf e2 :|\
[2 d^cde fdec | dBAF E2 |]| (FE) | D2 ((3AB^c) dcdA |
| ((3B^cd) (AF) BFAF | D2 ((3AB^c) dcde | fdcA BFAF \
|| D2 ((3AB^c) dcdf | e^def g2 (fg) | afge fde^c | dBAF E2 |]
